images/pe-stabilize.svg

<svg height="64" viewBox="0 0 131 64" width="131" xmlns="http://www.w3.org/2000/svg" xmlns:xlink="http://www.w3.org/1999/xlink"><mask id="a" fill="#fff"><path d="m17.3575666 1.16728105c-.7679846.00695639-1.5457082.0890417-2.3276057.25042979-3.430888.71094233-6.20787609 2.81316125-7.88714692 5.59154058h-.00417383s-13.25190945 20.90532198-3.02463529 41.79255728c.01113021.0264342.0236517.0431296.03478191.06539 3.7369689 8.9417346 13.38686323 14.2842367 23.23014513 12.2460165 9.8446731-2.0368289 16.5826256-10.7670895 16.4643671-20.4587222.0013912-.025043.0055651-.0459121.0055651-.0737376 1.1032823-23.2301451-19.3582224-37.16099756-19.3582224-37.16099756l-.0013913.00278255c-1.9811778-1.40936317-4.3741736-2.23021636-6.8923842-2.25525934z" fill="#fff" fill-rule="evenodd"/></mask><mask id="b" fill="#fff"><path d="m22.1769487 1.8657019-.0013912-.00278256s-11.8328074 3.94983422-20.12759837 14.41779926c2.34708359 5.3717189 3.86635762 11.6700279 3.5407989 18.818407l-.00417383.1516492c.03060809 5.5929318-1.90187509 10.8324795-5.19363548 15.0049179 1.27440935 1.2006717 2.7269021 2.2524768 4.3546957 3.1011555 8.38939778 4.3699998 18.49841348 2.0145685 24.17899578-5.1226804.0139127-.0194778.030608-.0319993.0473034-.0514772 14.6264907-16.2848924 7.9914927-38.61488154 7.9914927-38.61488154h-.0013913c-.809723-2.94811508-2.7811619-5.56371505-5.7056253-7.08855419-1.6723144-.87093914-3.4614961-1.28275701-5.2256348-1.28275701-1.3189302 0-2.6225564.22956064-3.8538362.66920404" fill="#fff" fill-rule="evenodd"/></mask><g fill="#e0be41" fill-rule="evenodd"><path d="m17.3575666 1.16728105c-.7679846.00695639-1.5457082.0890417-2.3276057.25042979-3.430888.71094233-6.20787609 2.81316125-7.88714692 5.59154058h-.00417383s-13.25190945 20.90532198-3.02463529 41.79255728c.01113021.0264342.0236517.0431296.03478191.06539 3.7369689 8.9417346 13.38686323 14.2842367 23.23014513 12.2460165 9.8446731-2.0368289 16.5826256-10.7670895 16.4643671-20.4587222.0013912-.025043.0055651-.0459121.0055651-.0737376 1.1032823-23.2301451-19.3582224-37.16099756-19.3582224-37.16099756l-.0013913.00278255c-1.9811778-1.40936317-4.3741736-2.23021636-6.8923842-2.25525934z" mask="url(#a)" transform="translate(25.042978 .224413)"/><path d="m22.1769487 1.8657019-.0013912-.00278256s-11.8328074 3.94983422-20.12759837 14.41779926c2.34708359 5.3717189 3.86635762 11.6700279 3.5407989 18.818407l-.00417383.1516492c.03060809 5.5929318-1.90187509 10.8324795-5.19363548 15.0049179 1.27440935 1.2006717 2.7269021 2.2524768 4.3546957 3.1011555 8.38939778 4.3699998 18.49841348 2.0145685 24.17899578-5.1226804.0139127-.0194778.030608-.0319993.0473034-.0514772 14.6264907-16.2848924 7.9914927-38.61488154 7.9914927-38.61488154h-.0013913c-.809723-2.94811508-2.7811619-5.56371505-5.7056253-7.08855419-1.6723144-.87093914-3.4614961-1.28275701-5.2256348-1.28275701-1.3189302 0-2.6225564.22956064-3.8538362.66920404" mask="url(#b)" transform="translate(66.781276 5.789519)"/><path d="m127.934003 20.8608011c-.779114 0-1.677879.3241674-2.345692.8737217-.989198.8166793-2.230216 1.4204934-3.195762 2.3331708 1.040675-.9836325 1.106065-4.6913846-.513381-4.6913846-.283821 0-.619118.1126934-1.008676.3742534-1.375972.9224163-2.363779 3.7870548-3.40028 3.7870548-.502251 0-1.015632-.6705953-1.588838-2.5571663-.095998-.3130373-.535641-.4382522-1.175628-.4382522-1.611099 0-3.423932.4187743-4.929293.9725024-1.467797.538424-2.999593.8458961-4.488259 1.3592772-1.510926.5217287-2.920289 1.3064087-4.482693 1.6931836-.58851.1474753-.982241.3158198-1.3411903.3158198-.3422541 0-.6525087-.1544317-1.0643266-.6219006.0306081 0-1.1004998-2.2385641-1.1324991-2.2371728-.1947788-.0848679-.3895575-.1224323-.5857275-.1224323-.8876344 0-1.7683125.7610283-2.5849919 1.2799744-1.4817095.9418943-3.2987167 1.1464119-5.0461601 1.3272779-3.8872268.4006876-7.8634953.875113-11.7715912 1.071283-1.4316236.0890417-2.8715949.186431-4.3101749.2949506-.473034.0361732-.9474593.0681725-1.4191021.1099108-4.7303403.4048615-10.548659.9057211-14.8713554-1.3843202-1.0337185-.5481629-2.8590733-1.9213529-4.0820055-1.4121457-.7916363.3311238-1.2604965 1.7279655-1.5290129 2.4583857-.3742534 1.0142407-.4410347 1.1951066-1.5665775 1.1951066-.1502578 0-.3116459-.0055651-.4855555-.0180866-2.1550874-.1599968-4.3727823-.5592932-6.5181308-.9474593-.8013753-.1446928-1.6027506-.2893856-2.4027346-.4201656-1.8865711-.3144285-3.752273-.9071123-5.6291051-1.192324-1.8907449-.2879942-3.742534-.0820853-5.548411-.8918083-.4312957-.1933874-5.3355457-1.9644825-5.3299806-1.8754408.0709551.9766761.140519 1.9547436.2100828 2.9314197-3.1832408-.1015632-6.3247434-.7818974-9.2812061-1.9616999-2.7783793-1.1088475-3.6173191-2.429169-5.90040399-4.1585257-.59824893-.4535562-2.07300211-1.2062368-3.17489316-1.2062368-.4632951 0-.86120021.1321712-1.10189105.4772078-1.06850042 1.5178828 2.56968784 5.1518972 2.04517657 7.3375927-.01947787.0834766-.08486787.1182585-.18503978.1182585-.67476915 0-2.9884621-1.6194459-4.39365145-1.6194459-.60103149 0-1.03510978.2949506-1.10606488 1.1394555-.10434575 1.2521489 2.43195146 4.7331229 3.49071294 5.4454566.58433617.3951225 2.05491551.8778955 2.77559678 1.1380642.06956383.1113021-.00139127.2490385.0417383.3714708.4396434.205909.40347021.3881662.55511936.8653741-.24069085.2156479-.55511936.2879942-.90154723.2879942-.75546318 0-1.66814062-.3464278-2.34986615-.3478191-.33668893 0-.61633552.0834766-.79302765.3339064-.92937276 1.3091912 1.23267105 1.7377044 1.92970062 1.9533523 2.01456849.6302483 3.46845252 2.1189142 4.80129547 3.6827091 1.2507577 1.4705794 3.2416745 3.4364532 3.5533204 5.3884142-.3631232.0278255-.7304202.0333906-1.0963259.0333906-.3005158 0-.6010315-.0041738-.900156-.0041738-.2991244 0-.5940751.0041738-.8890257.0208692-.4591213 1.7516172 1.9352657 2.2900412 3.1985448 2.3554312 1.513709.0793028 3.5449728-.0347819 4.9390319.6552913 1.1909328.5899013 1.6862272 1.9603087 2.9286372 2.5488187 1.4622317.6886819 3.2541959.7805062 4.8346861.8959821-.2532123.8111143.1363451 1.7015313.9363292 2.042394 2.0256987.8653741 3.5199297 2.0006558 5.2924161 3.3543679.7401591.5648583 2.5223844 1.2020629 2.3164755 2.3707353-.351993.0194778-.694247.2003438-1.0587615.2003438-.0500859 0-.1015632-.0041738-.1530404-.0111302-.6719866 1.6987487.105737 2.0952625 1.2368449 2.0952625.9878064 0 2.2427378-.3005157 3.0747212-.3005157 2.9077681.0361732 5.3480672 2.0855236 8.2419225 2.1523049.1349538.0027825.2685164.0041738.3979051.0041738.4702515 0 .9098949-.0166953 1.348147-.0166953.71929 0 1.4274498.0417383 2.2343902.2657338 1.4260585.3937313 2.8048136 1.0434574 4.306001 1.0935434 1.4831009.0473034 3.0190702.0973893 4.5466919.0973893 1.1018911 0 2.1968257-.0264342 3.2667174-.0973893 2.9564628-.2031264 5.8461442-.4201655 8.8457365-.4201655 6.0478794 0 11.8717631-.8278096 17.6274743-2.7978573 3.1707194-1.0851957 6.3386562-2.002047 9.4773761-3.2249791 1.9366574-.7526806 3.7842724-.8584176 5.6068444-1.8044857.79581-.4132091 1.541535-1.0810219 2.479255-1.2966698.365906-.0820853.752681-.105737 1.147803-.105737.422948 0 .854244.025043 1.281366.025043.228169 0 .453556-.0069564.67616-.0292168 2.14674-.2073002 2.116132-1.977004.607988-1.977004-.228169 0-.49112.040347-.783288.1335625.865374-.7693759 2.305345-1.0170232 3.304281-1.7196179 1.188151-.8361572 2.576645-1.4803182 3.90114-2.0563067 1.26467-.5495543 2.22326-1.4441451 3.462887-2.0743934 1.117196-.5662496 2.003439-.5370328 2.192652-1.9310919-.293559-.1725183-.578771-.2434734-.852852-.2434734-.964155 0-1.826746.8639827-2.731076 1.1951066-.340863.1252149-.927982.3060808-1.41632.3060808-.434078 0-.788854-.1405189-.831983-.5857274-.061216-.6539 1.196498-.9989366 1.555447-1.2563228 1.583273-1.136673 2.874378-2.605861 3.959573-4.2141768 1.225715-1.8114421 1.725183-3.8844442 2.87716-5.7139729.66503-1.0531964 3.009332-2.3637789 2.668469-3.8454885-.161388-.7025946-.587119-.9488506-1.096326-.9488506-.70816 0-1.576317.4702515-2.127262.8389398-.385384.2573862-1.118586.8222445-1.570751.8222445-.287995 0-.461904-.2267781-.361732-.9098949.093215-.6191181 1.616663-1.4441451 2.078567-1.9519611 1.463623-1.6166634 1.919962-2.9648104 3.955399-3.9623557.285212-.1405189.546772-.2838204.749898-.4521649.453557-1.6834446-.424339-2.3679527-1.554056-2.3679527z"/></g></svg>

<?xml version="1.0" encoding="UTF-8"?>
<svg width="131px" height="64px" viewBox="0 0 131 64" version="1.1" xmlns="http://www.w3.org/2000/svg" xmlns:xlink="http://www.w3.org/1999/xlink">
    <!-- Generator: Sketch 50.2 (55047) - http://www.bohemiancoding.com/sketch -->
    <title>Artboard 1</title>
    <desc>Created with Sketch.</desc>
    <defs>
        <path d="M17.3575666,1.16728105 C16.589582,1.17423744 15.8118584,1.25632275 15.0299609,1.41771084 C11.5990729,2.12865317 8.82208481,4.23087209 7.14281398,7.00925142 L7.13864015,7.00925142 C7.13864015,7.00925142 -6.1132693,27.9145734 4.11400486,48.8018087 C4.12513507,48.8282429 4.13765656,48.8449383 4.14878677,48.8671987 C7.88575567,57.8089333 17.53565,63.1514354 27.3789319,61.1132152 C37.223605,59.0763863 43.9615575,50.3461257 43.843299,40.654493 C43.8446902,40.62945 43.8488641,40.6085809 43.8488641,40.5807554 C44.9521464,17.3506103 24.4906417,3.41975784 24.4906417,3.41975784 L24.4892504,3.42254039 C22.5080726,2.01317722 20.1150768,1.19232403 17.5968662,1.16728105 L17.3575666,1.16728105 Z" id="path-1"></path>
        <path d="M22.1769487,1.8657019 L22.1755575,1.86291934 C22.1755575,1.86291934 10.3427501,5.81275356 2.04795913,16.2807186 C4.39504272,21.6524375 5.91431675,27.9507465 5.58875803,35.0991256 L5.5845842,35.2507748 C5.61519229,40.8437066 3.68270911,46.0832543 0.39094872,50.2556927 C1.66535807,51.4563644 3.11785082,52.5081695 4.74564442,53.3568482 C13.1350422,57.726848 23.2440579,55.3714167 28.9246402,48.2341678 C28.9385529,48.21469 28.9552482,48.2021685 28.9719436,48.1826906 C43.5984343,31.8977982 36.9634363,9.56780906 36.9634363,9.56780906 L36.962045,9.56780906 C36.152322,6.61969398 34.1808831,4.00409401 31.2564197,2.47925487 C29.5841053,1.60831573 27.7949236,1.19649786 26.0307849,1.19649786 C24.7118547,1.19649786 23.4082285,1.4260585 22.1769487,1.8657019" id="path-3"></path>
    </defs>
    <g id="Artboard-1" stroke="none" stroke-width="1" fill="none" fill-rule="evenodd">
        <g id="Group">
            <g id="Group-3" transform="translate(25.042978, 0.224413)">
                <mask id="mask-2" fill="white">
                    <use xlink:href="#path-1"></use>
                </mask>
                <g id="Clip-2"></g>
                <path d="M17.3575666,1.16728105 C16.589582,1.17423744 15.8118584,1.25632275 15.0299609,1.41771084 C11.5990729,2.12865317 8.82208481,4.23087209 7.14281398,7.00925142 L7.13864015,7.00925142 C7.13864015,7.00925142 -6.1132693,27.9145734 4.11400486,48.8018087 C4.12513507,48.8282429 4.13765656,48.8449383 4.14878677,48.8671987 C7.88575567,57.8089333 17.53565,63.1514354 27.3789319,61.1132152 C37.223605,59.0763863 43.9615575,50.3461257 43.843299,40.654493 C43.8446902,40.62945 43.8488641,40.6085809 43.8488641,40.5807554 C44.9521464,17.3506103 24.4906417,3.41975784 24.4906417,3.41975784 L24.4892504,3.42254039 C22.5080726,2.01317722 20.1150768,1.19232403 17.5968662,1.16728105 L17.3575666,1.16728105 Z" id="Fill-1" fill="#E0BE41" mask="url(#mask-2)"></path>
            </g>
            <g id="Group-6" transform="translate(66.781276, 5.789519)">
                <mask id="mask-4" fill="white">
                    <use xlink:href="#path-3"></use>
                </mask>
                <g id="Clip-5"></g>
                <path d="M22.1769487,1.8657019 L22.1755575,1.86291934 C22.1755575,1.86291934 10.3427501,5.81275356 2.04795913,16.2807186 C4.39504272,21.6524375 5.91431675,27.9507465 5.58875803,35.0991256 L5.5845842,35.2507748 C5.61519229,40.8437066 3.68270911,46.0832543 0.39094872,50.2556927 C1.66535807,51.4563644 3.11785082,52.5081695 4.74564442,53.3568482 C13.1350422,57.726848 23.2440579,55.3714167 28.9246402,48.2341678 C28.9385529,48.21469 28.9552482,48.2021685 28.9719436,48.1826906 C43.5984343,31.8977982 36.9634363,9.56780906 36.9634363,9.56780906 L36.962045,9.56780906 C36.152322,6.61969398 34.1808831,4.00409401 31.2564197,2.47925487 C29.5841053,1.60831573 27.7949236,1.19649786 26.0307849,1.19649786 C24.7118547,1.19649786 23.4082285,1.4260585 22.1769487,1.8657019" id="Fill-4" fill="#E0BE41" mask="url(#mask-4)"></path>
            </g>
            <path d="M127.934003,20.8608011 C127.154889,20.8608011 126.256124,21.1849685 125.588311,21.7345228 C124.599113,22.5512021 123.358095,23.1550162 122.392549,24.0676936 C123.433224,23.0840611 123.498614,19.376309 121.879168,19.376309 C121.595347,19.376309 121.26005,19.4890024 120.870492,19.7505624 C119.49452,20.6729787 118.506713,23.5376172 117.470212,23.5376172 C116.967961,23.5376172 116.45458,22.8670219 115.881374,20.9804509 C115.785376,20.6674136 115.345733,20.5421987 114.705746,20.5421987 C113.094647,20.5421987 111.281814,20.960973 109.776453,21.5147011 C108.308656,22.0531251 106.77686,22.3605972 105.288194,22.8739783 C103.777268,23.395707 102.367905,24.180387 100.805501,24.5671619 C100.216991,24.7146372 99.82326,24.8829817 99.4643107,24.8829817 C99.1220566,24.8829817 98.811802,24.72855 98.3999841,24.2610811 C98.4305922,24.2610811 97.2994843,22.022517 97.267485,22.0239083 C97.0727062,21.9390404 96.8779275,21.901476 96.6817575,21.901476 C95.7941231,21.901476 94.913445,22.6625043 94.0967656,23.1814504 C92.6150561,24.1233447 90.7980489,24.3278623 89.0506055,24.5087283 C85.1633787,24.9094159 81.1871102,25.3838413 77.2790143,25.5800113 C75.8473907,25.669053 74.4074194,25.7664423 72.9688394,25.8749619 C72.4958054,25.9111351 72.0213801,25.9431344 71.5497373,25.9848727 C66.819397,26.3897342 61.0010783,26.8905938 56.6783819,24.6005525 C55.6446634,24.0523896 53.8193086,22.6791996 52.5963764,23.1884068 C51.8047401,23.5195306 51.3358799,24.9163723 51.0673635,25.6467925 C50.6931101,26.6610332 50.6263288,26.8418991 49.500786,26.8418991 C49.3505282,26.8418991 49.1891401,26.836334 49.0152305,26.8238125 C46.8601431,26.6638157 44.6424482,26.2645193 42.4970997,25.8763532 C41.6957244,25.7316604 40.8943491,25.5869676 40.0943651,25.4561876 C38.207794,25.1417591 36.3420921,24.5490753 34.46526,24.2638636 C32.5745151,23.9758694 30.722726,24.1817783 28.916849,23.3720553 C28.4855533,23.1786679 23.5813033,21.4075728 23.5868684,21.4966145 C23.6578235,22.4732906 23.7273874,23.4513581 23.7969512,24.4280342 C20.6137104,24.326471 17.4722078,23.6461368 14.5157451,22.4663343 C11.7373658,21.3574868 10.898426,20.0371653 8.61534111,18.3078086 C8.01709218,17.8542524 6.542339,17.1015718 5.44044795,17.1015718 C4.97715285,17.1015718 4.57924774,17.233743 4.3385569,17.5787796 C3.27005648,19.0966624 6.90824474,22.7306768 6.38373347,24.9163723 C6.3642556,24.9998489 6.2988656,25.0346308 6.19869369,25.0346308 C5.52392454,25.0346308 3.21023159,23.4151849 1.80504224,23.4151849 C1.20401075,23.4151849 0.769932461,23.7101355 0.698977355,24.5546404 C0.594631611,25.8067893 3.13092882,29.2877633 4.1896903,30.000097 C4.77402647,30.3952195 6.24460581,30.8779925 6.96528708,31.1381612 C7.03485091,31.2494633 6.96389581,31.3871997 7.00702538,31.509632 C7.44666878,31.715541 7.41049559,31.8977982 7.56214474,32.3750061 C7.32145389,32.590654 7.00702538,32.6630003 6.66059751,32.6630003 C5.90513433,32.6630003 4.99245689,32.3165725 4.31073136,32.3151812 C3.97404243,32.3151812 3.69439584,32.3986578 3.51770371,32.6490876 C2.58833095,33.9582788 4.75037476,34.386792 5.44740433,34.6024399 C7.46197282,35.2326882 8.91585685,36.7213541 10.2486998,38.285149 C11.4994575,39.7557284 13.4903743,41.7216022 13.8020202,43.6735632 C13.438897,43.7013887 13.0716,43.7069538 12.7056943,43.7069538 C12.4051785,43.7069538 12.1046628,43.70278 11.8055383,43.70278 C11.5064139,43.70278 11.2114632,43.7069538 10.9165126,43.7236492 C10.4573913,45.4752664 12.8517783,46.0136904 14.1150574,46.0790804 C15.6287664,46.1583832 17.6600302,46.0442985 19.0540893,46.7343717 C20.2450221,47.324273 20.7403165,48.6946804 21.9827265,49.2831904 C23.4449582,49.9718723 25.2369224,50.0636966 26.8174126,50.1791725 C26.5642003,50.9902868 26.9537577,51.8807038 27.7537418,52.2215665 C29.7794405,53.0869406 31.2736715,54.2222223 33.0461579,55.5759344 C33.786317,56.1407927 35.5685423,56.7779973 35.3626334,57.9466697 C35.0106404,57.9661475 34.6683864,58.1470135 34.3038719,58.1470135 C34.253786,58.1470135 34.2023087,58.1428397 34.1508315,58.1358833 C33.4788449,59.834632 34.2565685,60.2311458 35.3876764,60.2311458 C36.3754828,60.2311458 37.6304142,59.9306301 38.4623976,59.9306301 C41.3701657,59.9668033 43.8104648,62.0161537 46.7043201,62.082935 C46.8392739,62.0857175 46.9728365,62.0871088 47.1022252,62.0871088 C47.5724767,62.0871088 48.0121201,62.0704135 48.4503722,62.0704135 C49.1696622,62.0704135 49.877822,62.1121518 50.6847624,62.3361473 C52.1108209,62.7298786 53.489576,63.3796047 54.9907634,63.4296907 C56.4738643,63.4769941 58.0098336,63.52708 59.5374553,63.52708 C60.6393464,63.52708 61.734281,63.5006458 62.8041727,63.4296907 C65.7606355,63.2265643 68.6503169,63.0095252 71.6499092,63.0095252 C77.6977886,63.0095252 83.5216723,62.1817156 89.2773835,60.2116679 C92.4481029,59.1264722 95.6160397,58.2096209 98.7547596,56.9866888 C100.691417,56.2340082 102.539032,56.1282712 104.361604,55.1822031 C105.157414,54.768994 105.903139,54.1011812 106.840859,53.8855333 C107.206765,53.803448 107.59354,53.7797963 107.988662,53.7797963 C108.41161,53.7797963 108.842906,53.8048393 109.270028,53.8048393 C109.498197,53.8048393 109.723584,53.7978829 109.946188,53.7756225 C112.092928,53.5683223 112.06232,51.7986185 110.554176,51.7986185 C110.326007,51.7986185 110.063056,51.8389655 109.770888,51.932181 C110.636262,51.1628051 112.076233,50.9151578 113.075169,50.2125631 C114.26332,49.3764059 115.651814,48.7322449 116.976309,48.1562564 C118.240979,47.6067021 119.199569,46.7121113 120.439196,46.081863 C121.556392,45.5156134 122.442635,45.5448302 122.631848,44.1507711 C122.338289,43.9782528 122.053077,43.9072977 121.778996,43.9072977 C120.814841,43.9072977 119.95225,44.7712804 119.04792,45.1024043 C118.707057,45.2276192 118.119938,45.4084851 117.6316,45.4084851 C117.197522,45.4084851 116.842746,45.2679662 116.799617,44.8227577 C116.738401,44.1688577 117.996115,43.8238211 118.355064,43.5664349 C119.938337,42.4297619 121.229442,40.9605739 122.314637,39.3522581 C123.540352,37.540816 124.03982,35.4678139 125.191797,33.6382852 C125.856827,32.5850888 128.201129,31.2745063 127.860266,29.7927967 C127.698878,29.0902021 127.273147,28.8439461 126.76394,28.8439461 C126.05578,28.8439461 125.187623,29.3141976 124.636678,29.6828859 C124.251294,29.9402721 123.518092,30.5051304 123.065927,30.5051304 C122.777932,30.5051304 122.604023,30.2783523 122.704195,29.5952355 C122.79741,28.9761174 124.320858,28.1510904 124.782762,27.6432744 C126.246385,26.026611 126.702724,24.678464 128.738161,23.6809187 C129.023373,23.5403998 129.284933,23.3970983 129.488059,23.2287538 C129.941616,21.5453092 129.06372,20.8608011 127.934003,20.8608011 Z" id="Stroke-7" fill="#E0BE41"></path>
        </g>
    </g>
</svg>
